Papirus/48x48/apps/abiword.svg

<?xml version="1.0" encoding="UTF-8" standalone="no"?>
<svg xmlns="http://www.w3.org/2000/svg" height="48" width="48" version="1.1" viewBox="0 0 48 48">
 <path d="M 24,4 A 20,20 0 0 0 4,24 20,20 0 0 0 24,44 20,20 0 0 0 44,24 20,20 0 0 0 24,4 Z" style="fill:#248afd;"/>
 <path style="opacity:0.2" d="M 4.0215,24.418 A 20,20 0 0 0 4,25 20,20 0 0 0 24,45 20,20 0 0 0 44,25 20,20 0 0 0 43.979,24.582 20,20 0 0 1 24,44 20,20 0 0 1 4.022,24.418 Z"/>
 <path style="opacity:0.2;fill:#ffffff" d="M 24,4 A 20,20 0 0 0 4,24 20,20 0 0 0 4.0215,24.418 20,20 0 0 1 23.9995,5 20,20 0 0 1 43.9785,24.582 20,20 0 0 0 43.9995,24 a 20,20 0 0 0 -20,-20 z"/>
 <path style="opacity:0.2;" d="m 23.898438,6.0058594 c -1.329569,-0.096884 -2.706499,0.9381381 -3.625,1.8925781 -3.847461,3.9865775 -6.189962,9.1897265 -8.486329,14.2128905 -1.8772206,4.166713 -3.2953167,8.527914 -4.4238278,12.966797 a 20,20 0 0 0 3.1679688,3.677734 c -0.144379,-1.020818 0.345561,-2.467813 0.568359,-3.308593 1.769267,-5.90546 4.512159,-11.43455 7.121094,-16.978516 1.032968,-1.751616 1.766874,-4.165898 3.849609,-4.839844 2.022999,-0.232238 3.350569,1.789047 4.398438,3.263672 4.284741,6.779821 8.331967,13.737376 11.880859,20.957031 0.0084,0.0176 0.01699,0.03513 0.02539,0.05273 a 20,20 0 0 0 0.908203,-1.035156 C 36.888538,28.230276 33.777348,19.781116 29.300781,12.058594 28.040667,10.143512 26.893518,8.0660066 25.193359,6.5253906 24.779142,6.1967418 24.341627,6.0381539 23.898438,6.0058594 Z m 8.205078,25.8457026 c -6.468875,3.304028 -13.126174,6.403505 -20.19336,8.058594 a 20,20 0 0 0 3.585938,2.167969 c 3.146287,-1.213609 6.173125,-2.778897 9.085937,-4.482422 2.692581,-1.633515 5.281324,-3.488735 7.521485,-5.744141 z"/>
 <path style="fill:#cccccc;stroke-width:0.15289953px;" d="m 32.103768,30.851217 c -6.476058,3.307696 -13.14135,6.41181 -20.217294,8.065521 -2.2808426,-0.01147 -1.155485,-3.079337 -0.787089,-4.46956 1.769267,-5.90546 4.512644,-11.434207 7.121579,-16.978173 1.032968,-1.751616 1.765647,-4.165664 3.848382,-4.83961 2.022999,-0.232238 3.352199,1.789041 4.400068,3.263665 4.284741,6.779821 8.331073,13.737055 11.879965,20.95671 C 39.248204,38.731516 40.128774,40.622481 41,42.517935 38.409382,31.593167 34.922467,20.756245 29.30124,11.059071 28.041126,9.1439888 26.893506,7.0659081 25.193347,5.525292 23.536479,4.2106968 21.498538,5.6260166 20.273869,6.8986033 16.426409,10.885181 14.082865,16.087219 11.786498,21.110383 9.1082479,27.055074 7.3509809,33.391651 6.0610521,39.7923 5.608807,41.947935 7.7549394,43.51262 9.6621557,42.843743 14.944845,41.708598 19.909261,39.327525 24.581446,36.595051 c 2.692581,-1.633515 5.282161,-3.488428 7.522322,-5.743834 z"/>
</svg>

<?xml version="1.0" encoding="UTF-8" standalone="no"?>
<svg width="48" xmlns="http://www.w3.org/2000/svg" viewBox="0 0 48 48" version="1.1" height="48">
 <circle cy="25" cx="24" r="20" style="opacity:.2"/>
 <circle style="fill:#248afd" cx="24" r="20" cy="24"/>
 <path style="opacity:.2" d="m23.898 6.0059c-1.3296-0.096884-2.7065 0.93814-3.625 1.8926-3.8475 3.9866-6.19 9.1897-8.4863 14.213-1.8772 4.1667-3.2953 8.5279-4.4238 12.967a20 20 0 0 0 3.168 3.6777c-0.14438-1.0208 0.34556-2.4678 0.56836-3.3086 1.7693-5.9055 4.5122-11.435 7.1211-16.979 1.033-1.7516 1.7669-4.1659 3.8496-4.8398 2.023-0.23224 3.3506 1.789 4.3984 3.2637 4.2847 6.7798 8.332 13.737 11.881 20.957 0.0084 0.0176 0.01699 0.03513 0.02539 0.05273a20 20 0 0 0 0.9082 -1.0352c-2.393-8.638-5.505-17.087-9.981-24.809-1.26-1.915-2.407-3.993-4.108-5.5336-0.414-0.3287-0.851-0.4872-1.295-0.5195zm8.2051 25.846c-6.4689 3.304-13.126 6.4035-20.193 8.0586a20 20 0 0 0 3.5859 2.168c3.1463-1.2136 6.1731-2.7789 9.0859-4.4824 2.6926-1.6335 5.2813-3.4887 7.5215-5.7441z"/>
 <path style="fill:#cccccc" d="m32.104 30.851c-6.4761 3.3077-13.141 6.4118-20.217 8.0655-2.2808-0.01147-1.1555-3.0793-0.78709-4.4696 1.7693-5.9055 4.5126-11.434 7.1216-16.978 1.033-1.7516 1.7656-4.1657 3.8484-4.8396 2.023-0.23224 3.3522 1.789 4.4001 3.2637 4.2847 6.7798 8.3311 13.737 11.88 20.957 0.898 1.882 1.779 3.772 2.65 5.668-2.591-10.925-6.078-21.762-11.699-31.459-1.26-1.915-2.407-3.9931-4.108-5.5337-1.657-1.3146-3.694 0.1007-4.919 1.3733-3.848 3.9864-6.191 9.1884-8.488 14.211-2.6778 5.945-4.435 12.282-5.7249 18.682-0.4523 2.156 1.6938 3.721 3.6011 3.052 5.2828-1.135 10.247-3.516 14.919-6.249 2.6926-1.6335 5.2822-3.4884 7.5223-5.7438z"/>
 <path style="opacity:.2;fill:#ffffff" d="m24 4a20 20 0 0 0 -20 20 20 20 0 0 0 0.0215 0.582 20 20 0 0 1 19.978 -19.582 20 20 0 0 1 19.979 19.418 20 20 0 0 0 0.021 -0.418 20 20 0 0 0 -20 -20z"/>
</svg>
